X:1
T:Title
%%score { ( 1 3 ) | ( 2 4 ) }
L:1/8
M:3/4
K:Bb
V:1 treble nm="Grand Piano"
V:3 treble 
V:2 bass 
V:4 bass 
V:1
 z2 z2[Q:1/4=100] [DF][DF] | [Fd]3 [DB] [DF][B,D] | [_DG]2 [=DF]2 FG | E4 [A,F]2 |[M:2/4] [B,D]4 | %5
[M:1/4] [DF][DF] |[M:3/4] [Fd]3 [Fd] [^Fd][Fc] | B2 G2 AB | c2 A2 [B,=EG]2 |[M:2/4] [A,F]4 | %10
[M:1/4] FF |[M:3/4] d2 c2 AF | [Dc]2 [DB]2 [B,FB][B,^FB] | [GB]4 [Gc]2 |[M:2/4] [^Fd]4 | %15
[M:1/4] [Ed][Ec] |[M:13/16] .[Dc].[DB]/ z/ z/ z/ z [DB][D_A]3/2 |[M:7/8] [F_A]2 G3 GG | %18
[M:3/4] F4 z2 |[M:2/4] [B,DF]4 |] %20
V:2
 z2 z2 [B,,B,][B,,B,] | [B,,B,]3 [B,,F,] [B,,F,][B,,F,] | [B,,=E,]2 [B,,F,]2 [F,D][F,E] | %3
 [F,C]4 [F,,F,]2 |[M:2/4] [B,,F,]4 |[M:1/4] [B,,B,][B,,B,] |[M:3/4] [B,,B,]3 [B,,B,] [D,A,][D,D] | %7
 [G,DG]2 [B,D]2 [A,D^F][G,DG] | A,2 C2 C,2 |[M:2/4] F,4 |[M:1/4] F,F, | %11
[M:3/4] [F,A,E]2 [F,A,E]2 [F,E][F,E] | [B,,F,]2 [B,,F,]2 D,D, | z2 A,2 [E,G,]2 |[M:2/4] [D,A,]4 | %15
[M:1/4] [F,A,][F,A,] |[M:13/16] .[B,,F,].[B,,F,]/ z/ z/ z/ z [B,,F,][B,,B,]3/2 | %17
[M:7/8] [D,B,]2 [E,B,E]3 [E,B,E][E,B,E] |[M:3/4] [B,D]2 A,B, F,,2 |[M:2/4] B,,4 |] %20
V:3
 x6 | x6 | x6 | x6 |[M:2/4] x4 |[M:1/4] x2 |[M:3/4] x6 | x6 | F4 z2 |[M:2/4] x4 |[M:1/4] x2 | %11
[M:3/4] x6 | x6 | B,2 z2 z2 |[M:2/4] x4 |[M:1/4] x2 |[M:13/16] x13/2 |[M:7/8] x7 | %18
[M:3/4] z2 CD [CEF]2 |[M:2/4] x4 |] %20
V:4
 x6 | x6 | x6 | x6 |[M:2/4] x4 |[M:1/4] x2 |[M:3/4] x6 | x6 | C,4 z2 |[M:2/4] x4 |[M:1/4] x2 | %11
[M:3/4] x6 | x6 | E,4 z2 |[M:2/4] x4 |[M:1/4] x2 |[M:13/16] x13/2 |[M:7/8] x7 |[M:3/4] F,4 z2 | %19
[M:2/4] x4 |] %20

